X:6364
T:Swanton Abbott Hornpipe. GHW.067
O:england
M:4/4
L:1/8
Q:180
S:George H.Watson,MS,Swanton Abbott,Norfolk,1850-1880
R:Hornpipe
A:Norfolk
K:F
cB|ABcA F2 fg|agaf d2 cB|AB c2 dcBA|A2G2G2 cB|
ABcA F2 fg|agaf d2 cB|AB c2 agfe|f2F2F2:|
|:de|fgaf ge c2|fgaf ge c2|cABc dcBA|A2G2G2 cB|
ABcA F2 fg|agbf d2 cB|AB c2 agfe|f2F2F2:|
W:Untitled in MS |]


